assets/icons/qvision/drive_file_rename_outline.svg

<svg xmlns="http://www.w3.org/2000/svg" height="24" viewBox="0 0 24 24" width="24"><path d="M0 0h24v24H0z" fill="none"/><path d="M18.41 5.8L17.2 4.59c-.78-.78-2.05-.78-2.83 0l-2.68 2.68L3 15.96V20h4.04l8.74-8.74 2.63-2.63c.79-.78.79-2.05 0-2.83zM6.21 18H5v-1.21l8.66-8.66 1.21 1.21L6.21 18zM11 20l4-4h6v4H11z"/></svg>

<svg width="24" height="24" viewBox="0 0 24 24" fill="none" xmlns="http://www.w3.org/2000/svg">
<g clip-path="url(#clip0_147_2856)">
<path d="M18.41 5.8L17.2 4.59C16.42 3.81 15.15 3.81 14.37 4.59L11.69 7.27L3 15.96V20H7.04L15.78 11.26L18.41 8.63C19.2 7.85 19.2 6.58 18.41 5.8ZM6.21 18H5V16.79L13.66 8.13L14.87 9.34L6.21 18ZM11 20L15 16H21V20H11Z" fill="#323232"/>
</g>
<defs>
<clipPath id="clip0_147_2856">
<rect width="24" height="24" fill="white"/>
</clipPath>
</defs>
</svg>
